X:1
T:Sniffle en juin
C:Karine Galant
L:1/8
M:4/4
I:linebreak $
K:F
V:1 treble nm="Violon" snm="Vln."
V:1
"Gm" GDDD GBAG |"F" FCCC FGAF |"Gm" GDDD GABG |"F" Addc AGGF |"Gm" GDDD GBAG |"F" FCCC FGAc | %6
"Gm" d2 cA GcAG |1"F" FDCF"Gm" DGGF :|2"F" FDCF"Gm" DD D2 |:"Gm" cdBd dGBd |"F" c2 cc cBAG | %11
 FGAc"Gm" d2 dd | dcAF"Gm" DGGG |"Gm" cdBd dGBd |"F" c2 cc cBAc |"Gm" d2 cA GcAG |1 %16
"F" FDCF"Gm" DD D2 :|2"F" FDCF"Gm" DGGF |] %18
